X: 1081
T: Now the Tories, &c. or Royal James.
%R: air, jig
B: Henry Playford "Apollo's Banquet", London 1687 (5th Edition)
F: https://archive.org/details/apollosbanquetco01rugg
Z: 2017 John Chambers <jc:trillian.mit.edu>
N: "9/8 time" pencilled at the top.
M: 3/4
L: 1/8
K: C
% - - - - - - - - - -
|:\
c4G2 (E2G2)E2 | (E2G2)E2 c4G2 | (EF)F3ED4_B2 | A2G2(G2 E2)(G2E2) |\
E2B2(AB) c3BA2 | G2E4 HC6 | c4G2 (E2G2)E2 |
(E2G2)E2 c4G2 | (EF)F3E D4B2 | A4G2 (E2G2)E2 | E2F2AB c3BA2 |\
G2D4 C6 :: e4c2 (ef)g2e2 | d2f2d2 e4d2 |
c2e2f2 g2e2c2 | d4A2 B2d2e2 | d2B2G2 c4G2 | (EF)F3E D4_B2 |\
A4G2 (E2G2)E2 | E2G2(AB) c3BA2 | G2E4 HC6 |]
% - - - - - - - - - -

%%sep 1 1 500
%%sep 1 1 500

